!!!!SEGMENT: Ric2024-Magnificat_octavi_toni
!!!id: Ric2024
!!!AGN: Motet
!!!voices: 6
!!!COM: Jean Richafort
!!!OTL: Magnificat octavi toni
**kern	**kern	**kern	**kern	**kern	**kern
*part6	*part5	*part4	*part3	*part2	*part1
*staff6	*staff5	*staff4	*staff3	*staff2	*staff1
*I"Bassus II	*I"Bassus I	*I"Tenor	*I"Altus	*I"Superius II	*I"Superius I
*I'B. II	*I'B. I	*I'T.	*I'A.	*I'S. II	*I'S. I
*clefF4	*clefF4	*clefGv2	*clefGv2	*clefG2	*clefG2
*k[]	*k[]	*k[]	*k[]	*k[]	*k[]
*C:	*C:	*C:	*C:	*C:	*C:
*M2/1	*M2/1	*M2/1	*M2/1	*M2/1	*M2/1
*met(C|)	*met(C|)	*met(C|)	*met(C|)	*met(C|)	*met(C|)
=1	=1	=1	=1	=1	=1
!!section: Et exsultavit
!!!OMD: Et exsultavit
0r	0r	1G	0r	0r	0r
.	.	2A	.	.	.
.	.	2B	.	.	.
=2	=2	=2	=2	=2	=2
0r	0r	2G	0r	0r	1g
.	.	1c	.	.	.
.	.	.	.	.	2a
.	.	2B	.	.	2b
=3	=3	=3	=3	=3	=3
0r	0r	2.c	1r	0r	2g
.	.	.	.	.	1cc
.	.	4B	.	.	.
.	.	2G	1d	.	.
.	.	2B	.	.	2b
=4	=4	=4	=4	=4	=4
0r	0r	1A	2e	0r	1cc
.	.	.	2f	.	.
.	.	2r	2d	.	2dd
.	.	2G	[2g	.	[2ee
=5	=5	=5	=5	=5	=5
0r	1r	2A	2g]	0r	2ee]
.	.	2B	2f	.	4dd
.	.	.	.	.	4cc
.	2r	2G	1g	.	2b
.	2C	[2c	.	.	4cc
.	.	.	.	.	4b
=6	=6	=6	=6	=6	=6
0r	2D	2c]	2r	0r	4a
.	.	.	.	.	4g
.	2E	2B	2G	.	1g
.	2C	1c	2.A	.	.
.	[2F	.	.	.	2f#i
.	.	.	4B	.	.
=7	=7	=7	=7	=7	=7
0r	4F]	2r	2G	0r	1g
.	4E	.	.	.	.
.	4E	2G	1c	.	.
.	4D	.	.	.	.
.	2F	2A	.	.	1r
.	2D	2B	2B	.	.
=8	=8	=8	=8	=8	=8
0r	2C	2G	2c	0r	1r
.	2E	1g	2G	.	.
.	1D	.	2A	.	2r
.	.	2f	2B	.	2d
=9	=9	=9	=9	=9	=9
0r	1C	0g	2G	0r	2.e
.	.	.	2.c	.	.
.	.	.	.	.	4f
.	2r	.	.	.	2d
.	.	.	4B	.	.
.	2G	.	[2e	.	[2g
=10	=10	=10	=10	=10	=10
0r	2A	2r	4e]	0r	2g]
.	.	.	4d	.	.
.	2B	2d	1d	.	2f
.	2G	2.e	.	.	2g
.	[2c	.	2c	.	2g
.	.	4f	.	.	.
=11	=11	=11	=11	=11	=11
0r	4c]	2d	2d	0r	2a
.	4B	.	.	.	.
.	4B	1g	2d	.	2b
.	4A	.	.	.	.
.	2c	.	2e	.	2g
.	2A	2f	2f	.	2cc
=12	=12	=12	=12	=12	=12
0r	2G	2g	1d	0r	4b
.	.	.	.	.	4a
.	2B	2d	.	.	2.dd
.	1A	2e	1r	.	.
.	.	.	.	.	4cc
.	.	2f	.	.	[2cc
=13	=13	=13	=13	=13	=13
0r	1G	1d	1.g	0r	2cc]
.	.	.	.	.	2b
.	2E	1c	.	.	[1cc
.	[2F	.	[2a	.	.
=14	=14	=14	=14	=14	=14
0r	2F]	2r	2a]	0r	1cc]
.	4E	2c	4g	.	.
.	4D	.	4f	.	.
.	1C	1c	[1e	.	2r
.	.	.	.	.	2g
=15	=15	=15	=15	=15	=15
0r	2r	1c	1e]	0r	1g
.	2c	.	.	.	.
.	1c	2r	2r	.	1g
.	.	2g	2e	.	.
=16	=16	=16	=16	=16	=16
0r	0c	2g	1e	0r	2r
.	.	2g	.	.	2cc
.	.	2c	[1e	.	2cc
.	.	[2g	.	.	2cc
=17	=17	=17	=17	=17	=17
0r	1r	2g]	1e]	0r	2b
.	.	4f	.	.	4a
.	.	4e	.	.	4g
.	2r	2d	2r	.	2b
.	2F	2c	2A	.	2cc
=18	=18	=18	=18	=18	=18
0r	2F	1d	2A	0r	1a
.	2F	.	2A	.	.
.	2E	2G	1B	.	1g
.	4D	[2e	.	.	.
.	4C	.	.	.	.
=19	=19	=19	=19	=19	=19
0r	2E	4e]	2r	0r	2r
.	.	4d	.	.	.
.	2F	1c	2c	.	2f
.	1D	.	2d	.	2f
.	.	2B	2d	.	2f
=20	=20	=20	=20	=20	=20
0r	1C	1.c	2G	0r	2e
.	.	.	2.e	.	4d
.	.	.	.	.	4c
.	1r	.	.	.	2e
.	.	.	4d	.	.
.	.	2F	[2c	.	2f
=21	=21	=21	=21	=21	=21
0r	1r	2G	2c]	0r	1d
.	.	2g	2B	.	.
.	2r	2g	1c	.	1c
.	2c	2g	.	.	.
=22	=22	=22	=22	=22	=22
0r	2c	1e	2r	0r	0r
.	2c	.	2g	.	.
.	2B	1r	2g	.	.
.	4A	.	2g	.	.
.	4G	.	.	.	.
=23	=23	=23	=23	=23	=23
0r	2B	2r	2f	0r	2r
.	2c	2c	4e	.	2cc
.	.	.	4d	.	.
.	1A	2c	2e	.	2cc
.	.	2c	2f	.	2cc
=24	=24	=24	=24	=24	=24
0r	2G	1d	2.g	0r	2b
.	2G	.	.	.	4a
.	.	.	4f	.	4g
.	2G	2B	4d	.	2b
.	.	.	4e	.	.
.	2F	[2c	2f	.	[2a
=25	=25	=25	=25	=25	=25
0r	2G	4c]	2e	0r	4a]
.	.	4B	.	.	4g
.	2E	2G	2c	.	1g
.	1D	1A	1d	.	.
.	.	.	.	.	2f#i
=26	=26	=26	=26	=26	=26
0r	0Gl	0Gl	0dl	0r	0gl
=27||	=27||	=27||	=27||	=27||	=27||
*M2/1	*M2/1	*M2/1	*M2/1	*M2/1	*M2/1
*met(C|)	*met(C|)	*met(C|)	*met(C|)	*met(C|)	*met(C|)
!!section: Quia fecit
!!!OMD: Quia fecit
0r	0r	2.G	1.g	0r	0r
.	.	4A	.	.	.
.	.	4B	.	.	.
.	.	4c	.	.	.
.	.	[2d	2f	.	.
=28	=28	=28	=28	=28	=28
0r	0r	2d]	1e	0r	2.g
.	.	1c	.	.	.
.	.	.	.	.	4a
.	.	.	2d	.	4b
.	.	.	.	.	4cc
.	.	2B	[2f	.	[2dd
=29	=29	=29	=29	=29	=29
0r	0r	1c	2f]	0r	4dd]
.	.	.	.	.	4cc
.	.	.	2e	.	1cc
.	.	1G	1d	.	.
.	.	.	.	.	2b
=30	=30	=30	=30	=30	=30
0r	2.C	0r	1c	0r	1.cc
.	4D	.	.	.	.
.	4E	.	1G	.	.
.	4F	.	.	.	.
.	[2G	.	.	.	2b
=31	=31	=31	=31	=31	=31
0r	2G]	2.A	0r	0r	1a
.	1F	.	.	.	.
.	.	4B	.	.	.
.	.	4c	.	.	1g
.	.	4d	.	.	.
.	2E	[2e	.	.	.
=32	=32	=32	=32	=32	=32
0r	2.F	4e]	2.A	0r	1.a
.	.	4d	.	.	.
.	.	2.d	.	.	.
.	4G	.	4B	.	.
.	1A	.	4c	.	.
.	.	4c	4d	.	.
.	.	4c	[2e	.	2g
.	.	4B	.	.	.
=33	=33	=33	=33	=33	=33
0r	1D	1d	4e]	0r	1f
.	.	.	4d	.	.
.	.	.	1d	.	.
.	1r	1A	.	.	1e
.	.	.	2c#i	.	.
=34	=34	=34	=34	=34	=34
0r	2.D	0r	1.d	0r	1d
.	4E	.	.	.	.
.	4F	.	.	.	1r
.	4G	.	.	.	.
.	[2A	.	2c	.	.
=35	=35	=35	=35	=35	=35
0r	2A]	1.d	1B	0r	2.d
.	1G	.	.	.	.
.	.	.	.	.	4e
.	.	.	1A	.	4f
.	.	.	.	.	4g
.	2F	2c	.	.	[2a
=36	=36	=36	=36	=36	=36
0r	2.G	2.B	2r	0r	4a]
.	.	.	.	.	4g
.	.	.	2.d	.	1g
.	4A	8AL	.	.	.
.	.	8GJ	.	.	.
.	4B	1d	.	.	.
.	4c	.	4e	.	.
.	[2d	.	2f	.	2f
=37	=37	=37	=37	=37	=37
0r	4d]	2G	1e	0r	2.g
.	4c	.	.	.	.
.	2.c	1g	.	.	.
.	.	.	.	.	4a
.	.	.	1d	.	4b
.	4B	.	.	.	4cc
.	4B	2f	.	.	[2dd
.	4A	.	.	.	.
=38	=38	=38	=38	=38	=38
0r	1c	2.e	0g	0r	2dd]
.	.	.	.	.	1cc
.	.	8dL	.	.	.
.	.	8cJ	.	.	.
.	1G	1d	.	.	.
.	.	.	.	.	2b
=39	=39	=39	=39	=39	=39
0r	0C	0c	2r	0r	[0cc
.	.	.	2g	.	.
.	.	.	2g	.	.
.	.	.	2g	.	.
=40	=40	=40	=40	=40	=40
0r	2r	0r	2f	0r	0cc]
.	2c	.	1g	.	.
.	2c	.	.	.	.
.	2c	.	4f	.	.
.	.	.	4e	.	.
=41	=41	=41	=41	=41	=41
0r	2B	0r	2d	0r	2r
.	1c	.	2e	.	2cc
.	.	.	1A	.	2cc
.	4B	.	.	.	2cc
.	4A	.	.	.	.
=42	=42	=42	=42	=42	=42
0r	2G	2r	1e	0r	2b
.	2A	2c	.	.	1cc
.	1F	2c	1r	.	.
.	.	2c	.	.	4b
.	.	.	.	.	4a
=43	=43	=43	=43	=43	=43
0r	2r	2B	0r	0r	2g
.	2F	1c	.	.	2a
.	2F	.	.	.	1f
.	2F	4B	.	.	.
.	.	4A	.	.	.
=44	=44	=44	=44	=44	=44
0r	4E	4G	1r	0r	1g
.	4F	4A	.	.	.
.	4G	4B	.	.	.
.	4E	4c	.	.	.
.	2F	2d	2r	.	2r
.	4E	[2e	2g	.	2b
.	4D	.	.	.	.
=45	=45	=45	=45	=45	=45
0r	2C	4e]	2g	0r	1cc
.	.	4d	.	.	.
.	2E	1c	2g	.	.
.	1D	.	1f	.	1dd
.	.	2B	.	.	.
=46	=46	=46	=46	=46	=46
0r	1C	1c	2.e	0r	1.ee
.	.	.	4f	.	.
.	[1c	1e	2g	.	.
.	.	.	[2a	.	2dd
=47	=47	=47	=47	=47	=47
0r	2c]	1e	2a]	0r	1cc
.	2B	.	1g	.	.
.	1A	1c	.	.	1cc
.	.	.	2f#i	.	.
=48	=48	=48	=48	=48	=48
0r	0G	1d	0g	0r	0b
.	.	2r	.	.	.
.	.	2G	.	.	.
=49	=49	=49	=49	=49	=49
0r	1F	2.c	2r	0r	1r
.	.	.	1c	.	.
.	.	4d	.	.	.
.	2E	4e	.	.	2r
.	.	4f	.	.	.
.	2C	[2e	2c	.	[2g
=50	=50	=50	=50	=50	=50
0r	1G	2e]	2c	0r	2g]
.	.	2d	2B	.	2g
.	1r	2e	2c	.	2g
.	.	2c	2A	.	2f
=51	=51	=51	=51	=51	=51
0r	0r	2r	2G	0r	4g
.	.	.	.	.	4f
.	.	1c	2g	.	4e
.	.	.	.	.	4d
.	.	.	2e	.	2e
.	.	2c	[2g	.	2e
=52	=52	=52	=52	=52	=52
0r	1r	2c	4g]	0r	4d
.	.	.	4f	.	4e
.	.	2B	2d	.	4f
.	.	.	.	.	4g
.	2r	4c	1e	.	2a
.	.	4B	.	.	.
.	[2c	4A	.	.	[2g
.	.	4G	.	.	.
=53	=53	=53	=53	=53	=53
0r	2c]	2A	1r	0r	2g]
.	2c	2A	.	.	2f#i
.	2c	1G	2r	.	1g
.	2B	.	[2g	.	.
=54	=54	=54	=54	=54	=54
0r	4c	0r	2g]	0r	2r
.	4B	.	.	.	.
.	4A	.	2g	.	1cc
.	4G	.	.	.	.
.	2A	.	2g	.	.
.	2A	.	2f	.	2cc
=55	=55	=55	=55	=55	=55
0r	1G	1r	1g	0r	2cc
.	.	.	.	.	2b
.	1r	2r	[1e	.	4cc
.	.	.	.	.	4b
.	.	[2c	.	.	4a
.	.	.	.	.	4g
=56	=56	=56	=56	=56	=56
0r	1r	2c]	1e]	0r	2a
.	.	2c	.	.	2a
.	1G	2c	2.d	.	2g
.	.	2B	.	.	2b
.	.	.	4e	.	.
=57	=57	=57	=57	=57	=57
0r	2F	4c	4f	0r	2a
.	.	4B	4e	.	.
.	2G	4A	4d	.	1g
.	.	4G	4c	.	.
.	1D	2A	1d	.	.
.	.	2A	.	.	2f#i
=58	=58	=58	=58	=58	=58
0r	0Gl	0Gl	0dl	0r	0gl
=59||	=59||	=59||	=59||	=59||	=59||
*M2/1	*M2/1	*M2/1	*M2/1	*M2/1	*M2/1
*met(C|)	*met(C|)	*met(C|)	*met(C|)	*met(C|)	*met(C|)
!!section: Fecit potentiam
!!!OMD: Fecit potentiam
0r	0r	0r	1G	0r	0r
.	.	.	1A	.	.
=60	=60	=60	=60	=60	=60
0r	0r	0r	1G	0r	1r
.	.	.	1c	.	1g
=61	=61	=61	=61	=61	=61
0r	0r	0r	2c	0r	1a
.	.	.	2c	.	.
.	.	.	1c	.	1g
=62	=62	=62	=62	=62	=62
0r	0r	0r	2r	0r	1cc
.	.	.	2.A	.	.
.	.	.	.	.	2cc
.	.	.	4B	.	.
.	.	.	4c	.	2cc
.	.	.	4d	.	.
=63	=63	=63	=63	=63	=63
0r	0r	0r	2e	0r	1cc
.	.	.	1f	.	.
.	.	.	.	.	2r
.	.	.	4e	.	[2cc
.	.	.	4d	.	.
=64	=64	=64	=64	=64	=64
0r	0r	0r	2e	0r	2cc]
.	.	.	2f	.	4b
.	.	.	.	.	4a
.	.	.	2.g	.	4b
.	.	.	.	.	4cc
.	.	.	.	.	[2dd
.	.	.	4e	.	.
=65	=65	=65	=65	=65	=65
0r	0r	0r	4f	0r	4dd]
.	.	.	4e	.	4cc
.	.	.	4d	.	1cc
.	.	.	4c	.	.
.	.	.	2d	.	.
.	.	.	[2e	.	2b
=66	=66	=66	=66	=66	=66
0r	0r	0r	4e]	0r	0cc
.	.	.	4d	.	.
.	.	.	4c	.	.
.	.	.	4B	.	.
.	.	.	4A	.	.
.	.	.	4B	.	.
.	.	.	[2c	.	.
=67	=67	=67	=67	=67	=67
0r	0r	0r	2c]	0r	2r
.	.	.	4B	.	2g
.	.	.	4A	.	.
.	.	.	1G	.	2g
.	.	.	.	.	2g
=68	=68	=68	=68	=68	=68
0r	0r	0r	2r	0r	1a
.	.	.	2d	.	.
.	.	.	2d	.	1b
.	.	.	2d	.	.
=69	=69	=69	=69	=69	=69
0r	0r	0r	1e	0r	1g
.	.	.	1f	.	2r
.	.	.	.	.	2cc
=70	=70	=70	=70	=70	=70
0r	0r	0r	2e	0r	2cc
.	.	.	1f	.	2cc
.	.	.	.	.	1dd
.	.	.	4e	.	.
.	.	.	4d	.	.
=71	=71	=71	=71	=71	=71
0r	0r	0r	1c	0r	2.ee
.	.	.	.	.	4dd
.	.	.	2r	.	4cc
.	.	.	.	.	4b
.	.	.	4G	.	[2dd
.	.	.	4A	.	.
=72	=72	=72	=72	=72	=72
0r	0r	0r	4B	0r	4dd]
.	.	.	4c	.	4cc
.	.	.	4d	.	2b
.	.	.	4e	.	.
.	.	.	2f	.	2a
.	.	.	4e	.	[2cc
.	.	.	4d	.	.
=73	=73	=73	=73	=73	=73
0r	0r	0r	4e	0r	2cc]
.	.	.	4f	.	.
.	.	.	1g	.	2b
.	.	.	.	.	1a
.	.	.	2f	.	.
=74	=74	=74	=74	=74	=74
0r	0r	0r	4e	0r	1g
.	.	.	4d	.	.
.	.	.	4c	.	.
.	.	.	4B	.	.
.	.	.	4c	.	2r
.	.	.	4B	.	.
.	.	.	4A	.	2e
.	.	.	4G	.	.
=75	=75	=75	=75	=75	=75
0r	0r	0r	1A	0r	2e
.	.	.	.	.	2f
.	.	.	2r	.	1g
.	.	.	2c	.	.
=76	=76	=76	=76	=76	=76
0r	0r	0r	2c	0r	2.a
.	.	.	2c	.	.
.	.	.	.	.	4g
.	.	.	2d	.	4f
.	.	.	.	.	4e
.	.	.	[2e	.	[2g
=77	=77	=77	=77	=77	=77
0r	0r	0r	4e]	0r	4g]
.	.	.	4d	.	4f
.	.	.	2c	.	2e
.	.	.	4B	.	2d
.	.	.	4c	.	.
.	.	.	4d	.	[2f
.	.	.	4e	.	.
=78	=78	=78	=78	=78	=78
0r	0r	0r	2d	0r	2f]
.	.	.	1c	.	2e
.	.	.	.	.	1d
.	.	.	2B	.	.
=79	=79	=79	=79	=79	=79
0r	0r	0r	0c	0r	1c
.	.	.	.	.	2r
.	.	.	.	.	2cc
=80	=80	=80	=80	=80	=80
0r	0r	0r	2r	0r	0cc
.	.	.	2c	.	.
.	.	.	2e	.	.
.	.	.	2f	.	.
=81	=81	=81	=81	=81	=81
0r	0r	0r	2.g	0r	1b
.	.	.	4f	.	.
.	.	.	4e	.	[1cc
.	.	.	4d	.	.
.	.	.	[2a	.	.
=82	=82	=82	=82	=82	=82
0r	0r	0r	2a]	0r	2cc]
.	.	.	1g	.	2b
.	.	.	.	.	1a
.	.	.	2f#i	.	.
=83	=83	=83	=83	=83	=83
0r	0r	0r	1g	0r	0g
.	.	.	2r	.	.
.	.	.	2c	.	.
=84	=84	=84	=84	=84	=84
0r	0r	0r	0c	0r	2r
.	.	.	.	.	2c
.	.	.	.	.	2e
.	.	.	.	.	2f
=85	=85	=85	=85	=85	=85
0r	0r	0r	2r	0r	2.g
.	.	.	2c	.	.
.	.	.	.	.	4f
.	.	.	2c	.	4e
.	.	.	.	.	4d
.	.	.	2c	.	[2a
=86	=86	=86	=86	=86	=86
0r	0r	0r	2B	0r	4a]
.	.	.	.	.	4g
.	.	.	2c	.	1g
.	.	.	1A	.	.
.	.	.	.	.	2f#i
=87	=87	=87	=87	=87	=87
0r	0r	0r	0Gl	0r	0gl
=88||	=88||	=88||	=88||	=88||	=88||
*M2/1	*M2/1	*M2/1	*M2/1	*M2/1	*M2/1
*met(C|)	*met(C|)	*met(C|)	*met(C|)	*met(C|)	*met(C|)
!!section: Esurientes implevit bonis
!!!OMD: Esurientes implevit bonis
0r	0r	1G	0r	0r	0r
.	.	1A	.	.	.
=89	=89	=89	=89	=89	=89
0r	0r	1G	1d	0r	0g
.	.	[1c	1e	.	.
=90	=90	=90	=90	=90	=90
0r	0r	2c]	1d	0r	1g
.	.	2B	.	.	.
.	.	1e	[1g	.	1g
=91	=91	=91	=91	=91	=91
0r	0r	0d	2g]	0r	0a
.	.	.	4f#i	.	.
.	.	.	4e	.	.
.	.	.	1f#i	.	.
=92	=92	=92	=92	=92	=92
0r	1G	2r	1g	0r	1g
.	.	2G	.	.	.
.	2F	2A	1r	.	1r
.	[2G	2B	.	.	.
=93	=93	=93	=93	=93	=93
0r	4G]	2G	2r	0r	1g
.	4F	.	.	.	.
.	2E	1c	2g	.	.
.	2D	.	2f	.	2a
.	2G	2B	2g	.	2b
=94	=94	=94	=94	=94	=94
0r	1C	1c	2e	0r	2g
.	.	.	4d	.	1cc
.	.	.	4c	.	.
.	1r	2r	1d	.	.
.	.	2G	.	.	2b
=95	=95	=95	=95	=95	=95
0r	1r	4A	1c	0r	1cc
.	.	4B	.	.	.
.	.	4c	.	.	.
.	.	4A	.	.	.
.	1G	4B	1r	.	1r
.	.	4c	.	.	.
.	.	[2d	.	.	.
=96	=96	=96	=96	=96	=96
0r	2F	4d]	1r	0r	1r
.	.	4c	.	.	.
.	2.G	4B	.	.	.
.	.	4A	.	.	.
.	.	2G	2r	.	1g
.	4F	.	.	.	.
.	2E	[2c	2g	.	.
=97	=97	=97	=97	=97	=97
0r	2D	2c]	2f	0r	2a
.	2G	2B	2g	.	2b
.	1C	2c	1e	.	2.g
.	.	2g	.	.	.
.	.	.	.	.	4a
=98	=98	=98	=98	=98	=98
0r	2r	2f	2d	0r	2b
.	2c	2e	2.g	.	2cc
.	2B	2d	.	.	2dd
.	.	.	4f	.	.
.	[2c	2g	4e	.	[2ee
.	.	.	4d	.	.
=99	=99	=99	=99	=99	=99
0r	4c]	1c	2e	0r	4ee]
.	4B	.	.	.	4dd
.	2A	.	2f	.	1cc
.	1G	1d	1g	.	.
.	.	.	.	.	2b
=100	=100	=100	=100	=100	=100
0r	0C	0c	2r	0r	0cc
.	.	.	2e	.	.
.	.	.	2e	.	.
.	.	.	2e	.	.
=101	=101	=101	=101	=101	=101
0r	0r	0r	1f	0r	2r
.	.	.	.	.	2cc
.	.	.	1e	.	2cc
.	.	.	.	.	2b
=102	=102	=102	=102	=102	=102
0r	1F	2r	0r	0r	1a
.	.	2c	.	.	.
.	2F	2c	.	.	1g
.	2E	2c	.	.	.
=103	=103	=103	=103	=103	=103
0r	4D	1d	2r	0r	1r
.	4E	.	.	.	.
.	4F	.	2f	.	.
.	4G	.	.	.	.
.	2.A	1c	2f	.	2r
.	.	.	2e	.	2a
.	4G	.	.	.	.
=104	=104	=104	=104	=104	=104
0r	2F	0r	4d	0r	2a
.	.	.	4c	.	.
.	2E	.	1c	.	2g
.	1D	.	.	.	1f
.	.	.	2B	.	.
=105	=105	=105	=105	=105	=105
0r	0C	1r	0c	0r	0e
.	.	1g	.	.	.
=106	=106	=106	=106	=106	=106
0r	1c	2g	1e	0r	0r
.	.	2g	.	.	.
.	2c	[1g	2e	.	.
.	2c	.	2e	.	.
=107	=107	=107	=107	=107	=107
0r	0c	2g]	1e	0r	1ee
.	.	2f	.	.	.
.	.	2.e	2r	.	2ee
.	.	.	2e	.	2ee
.	.	4d	.	.	.
=108	=108	=108	=108	=108	=108
0r	0r	2c	2e	0r	2.ee
.	.	4B	2g	.	.
.	.	4A	.	.	8ddL
.	.	.	.	.	8ccJ
.	.	2.G	2.g	.	4b
.	.	.	.	.	4cc
.	.	.	.	.	[2dd
.	.	4A	8fL	.	.
.	.	.	8eJ	.	.
=109	=109	=109	=109	=109	=109
0r	0r	2B	4d	0r	2dd]
.	.	.	4c	.	.
.	.	2c	2e	.	1cc
.	.	1G	1d	.	.
.	.	.	.	.	2b
=110	=110	=110	=110	=110	=110
0r	1c	2r	1c	0r	1cc
.	.	1g	.	.	.
.	2B	.	1r	.	2r
.	2A	[2f	.	.	2cc
=111	=111	=111	=111	=111	=111
0r	2d	2f]	0r	0r	2b
.	2c	2e	.	.	2a
.	2B	2d	.	.	2.dd
.	2A	[2f	.	.	.
.	.	.	.	.	4cc
=112	=112	=112	=112	=112	=112
0r	2.d	2f]	0r	0r	2b
.	.	4e	.	.	2.a
.	4B	4d	.	.	.
.	4c	1e	.	.	.
.	4B	.	.	.	4g
.	4A	.	.	.	[2g
.	4G	.	.	.	.
=113	=113	=113	=113	=113	=113
0r	1A	0r	2r	0r	2g]
.	.	.	2f	.	2f#i
.	1G	.	2e	.	1g
.	.	.	2d	.	.
=114	=114	=114	=114	=114	=114
0r	0r	2r	1.g	0r	0r
.	.	2c	.	.	.
.	.	2B	.	.	.
.	.	2A	4f	.	.
.	.	.	4e	.	.
=115	=115	=115	=115	=115	=115
0r	2r	2.d	4f	0r	0r
.	.	.	4g	.	.
.	2F	.	1a	.	.
.	.	4B	.	.	.
.	1E	4c	.	.	.
.	.	4B	.	.	.
.	.	4A	[2g	.	.
.	.	4G	.	.	.
=116	=116	=116	=116	=116	=116
0r	1D	1A	2g]	0r	2r
.	.	.	2f#i	.	2f
.	2.G	1G	1g	.	2e
.	.	.	.	.	2d
.	4F	.	.	.	.
=117	=117	=117	=117	=117	=117
0r	2E	0r	2r	0r	2g
.	2D	.	2f	.	2a
.	2.G	.	2e	.	1b
.	.	.	2d	.	.
.	4E	.	.	.	.
=118	=118	=118	=118	=118	=118
0r	4F	2r	1.f	0r	0r
.	4E	.	.	.	.
.	4D	2c	.	.	.
.	4C	.	.	.	.
.	1D	2B	.	.	.
.	.	2A	4e	.	.
.	.	.	4d	.	.
=119	=119	=119	=119	=119	=119
0r	2C	2.c	2e	0r	2r
.	2F	.	2A	.	2cc
.	.	8BL	.	.	.
.	.	8AJ	.	.	.
.	2G	2G	2r	.	2b
.	2F	2c	2f	.	2a
=120	=120	=120	=120	=120	=120
0r	2r	2B	2g	0r	2.dd
.	2F	2A	2f	.	.
.	.	.	.	.	4cc
.	2G	2.d	2r	.	2b
.	2F	.	2f	.	[2a
.	.	4B	.	.	.
=121	=121	=121	=121	=121	=121
0r	1E	4c	2g	0r	4a]
.	.	4B	.	.	4g
.	.	4A	2c	.	1g
.	.	4G	.	.	.
.	1D	1A	1d	.	.
.	.	.	.	.	2f#i
=122	=122	=122	=122	=122	=122
0r	0Gl	0Gl	0dl	0r	0gl
=123||	=123||	=123||	=123||	=123||	=123||
*M2/1	*M2/1	*M2/1	*M2/1	*M2/1	*M2/1
*met(C|)	*met(C|)	*met(C|)	*met(C|)	*met(C|)	*met(C|)
!!section: Sicut locutus est
!!!OMD: Sicut locutus est
0r	0r	1g	0r	0r	0r
.	.	2f	.	.	.
.	.	[2g	.	.	.
=124	=124	=124	=124	=124	=124
0r	0r	4g]	0r	0r	1r
.	.	4f	.	.	.
.	.	4e	.	.	.
.	.	4d	.	.	.
.	.	2c	.	.	1g
.	.	2B	.	.	.
=125	=125	=125	=125	=125	=125
0r	0r	2A	0r	0r	2a
.	.	2G	.	.	2b
.	.	2.c	.	.	2g
.	.	.	.	.	[2cc
.	.	4d	.	.	.
=126	=126	=126	=126	=126	=126
0r	0r	2e	0r	0r	4cc]
.	.	.	.	.	4b
.	.	2f	.	.	4a
.	.	.	.	.	4g
.	.	2d	.	.	2f
.	.	2c	.	.	2e
=127	=127	=127	=127	=127	=127
0r	0r	2.f	0r	0r	4d
.	.	.	.	.	4c
.	.	.	.	.	2cc
.	.	4e	.	.	.
.	.	2d	.	.	2b
.	.	4c	.	.	[2cc
.	.	4B	.	.	.
=128	=128	=128	=128	=128	=128
0r	1c	1A	0r	0r	4cc]
.	.	.	.	.	4b
.	.	.	.	.	1a
.	2B	1r	.	.	.
.	[2c	.	.	.	2g
=129	=129	=129	=129	=129	=129
0r	4c]	1r	0r	0r	1a
.	4B	.	.	.	.
.	4A	.	.	.	.
.	4G	.	.	.	.
.	2F	1c	.	.	1r
.	2E	.	.	.	.
=130	=130	=130	=130	=130	=130
0r	2D	2d	0r	0r	1r
.	2C	2e	.	.	.
.	1F	2.c	.	.	2r
.	.	.	.	.	2cc
.	.	4d	.	.	.
=131	=131	=131	=131	=131	=131
0r	2G	1e	0r	0r	2b
.	2A	.	.	.	2.cc
.	2.F	1A	.	.	.
.	.	.	.	.	4b
.	.	.	.	.	4a
.	4G	.	.	.	4g
=132	=132	=132	=132	=132	=132
0r	4A	0r	0r	0r	2f
.	4B	.	.	.	.
.	1c	.	.	.	2e
.	.	.	.	.	1d
.	2B	.	.	.	.
=133	=133	=133	=133	=133	=133
0r	1c	2r	0r	0r	0c
.	.	2e	.	.	.
.	2r	2e	.	.	.
.	2A	2e	.	.	.
=134	=134	=134	=134	=134	=134
0r	2A	1f	0r	0r	0r
.	2A	.	.	.	.
.	1G	[1g	.	.	.
=135	=135	=135	=135	=135	=135
0r	1E	1g]	0r	0r	2r
.	.	.	.	.	2e
.	2r	2r	.	.	2e
.	2A	2c	.	.	2e
=136	=136	=136	=136	=136	=136
0r	2A	2c	0r	0r	1f
.	2A	2c	.	.	.
.	1G	1d	.	.	1g
=137	=137	=137	=137	=137	=137
0r	4E	2.e	0r	0r	2r
.	4F	.	.	.	.
.	4G	.	.	.	2g
.	4A	4c	.	.	.
.	2B	2d	.	.	2g
.	[2c	[2e	.	.	2g
=138	=138	=138	=138	=138	=138
0r	4c]	4e]	0r	0r	1a
.	4B	4d	.	.	.
.	4A	1g	.	.	.
.	4G	.	.	.	.
.	1A	.	.	.	[1cc
.	.	2f#i	.	.	.
=139	=139	=139	=139	=139	=139
0r	[0G	1.g	0r	0r	2cc]
.	.	.	.	.	4b
.	.	.	.	.	4a
.	.	.	.	.	4b
.	.	.	.	.	4cc
.	.	4f	.	.	[2dd
.	.	4e	.	.	.
=140	=140	=140	=140	=140	=140
0r	0G]	4f	0r	0r	2dd]
.	.	4e	.	.	.
.	.	4d	.	.	1cc
.	.	4c	.	.	.
.	.	1d	.	.	.
.	.	.	.	.	2b
=141	=141	=141	=141	=141	=141
0r	1.C	0c	0r	0r	1cc
.	.	.	.	.	[1g
.	2D	.	.	.	.
=142	=142	=142	=142	=142	=142
0r	1E	2r	0r	0r	2g]
.	.	1G	.	.	2g
.	2r	.	.	.	1g
.	2C	2G	.	.	.
=143	=143	=143	=143	=143	=143
0r	1C	1.c	0r	0r	0r
.	2.F	.	.	.	.
.	.	2A	.	.	.
.	4F	.	.	.	.
=144	=144	=144	=144	=144	=144
0r	2F	2c	0r	0r	0r
.	2F	2d	.	.	.
.	2E	2e	.	.	.
.	[2G	2e	.	.	.
=145	=145	=145	=145	=145	=145
0r	2G]	1d	0r	0r	2r
.	2G	.	.	.	1g
.	[1c	1r	.	.	.
.	.	.	.	.	2g
=146	=146	=146	=146	=146	=146
0r	2c]	1.c	0r	0r	1.cc
.	2B	.	.	.	.
.	2A	.	.	.	.
.	2G	2c	.	.	2b
=147	=147	=147	=147	=147	=147
0r	2F	1.f	0r	0r	2a
.	2E	.	.	.	2g
.	[1D	.	.	.	2.a
.	.	2e	.	.	.
.	.	.	.	.	4g
=148	=148	=148	=148	=148	=148
0r	1D]	2d	0r	0r	2f
.	.	2c	.	.	2e
.	2.G	2B	.	.	1d
.	.	2A	.	.	.
.	4F	.	.	.	.
=149	=149	=149	=149	=149	=149
0r	4E	2.G	0r	0r	2.e
.	4D	.	.	.	.
.	1G	.	.	.	.
.	.	4A	.	.	4f
.	.	2B	.	.	2g
.	2F	[2c	.	.	[2a
=150	=150	=150	=150	=150	=150
0r	1E	4c]	0r	0r	4a]
.	.	4B	.	.	4g
.	.	4A	.	.	1g
.	.	4G	.	.	.
.	1D	1A	.	.	.
.	.	.	.	.	2f#i
=151	=151	=151	=151	=151	=151
0r	1G	2r	0r	0r	0g
.	.	1G	.	.	.
.	2r	.	.	.	.
.	[2C	2G	.	.	.
=152	=152	=152	=152	=152	=152
0r	2C]	1.c	0r	0r	0r
.	2C	.	.	.	.
.	2.F	.	.	.	.
.	.	2A	.	.	.
.	4F	.	.	.	.
=153	=153	=153	=153	=153	=153
0r	2F	2c	0r	0r	0r
.	2F	2d	.	.	.
.	2E	2e	.	.	.
.	[2G	2e	.	.	.
=154	=154	=154	=154	=154	=154
0r	2G]	1d	0r	0r	2r
.	2G	.	.	.	1g
.	[1c	1r	.	.	.
.	.	.	.	.	2g
=155	=155	=155	=155	=155	=155
0r	2c]	1.c	0r	0r	1.cc
.	2B	.	.	.	.
.	2A	.	.	.	.
.	2G	2c	.	.	2b
=156	=156	=156	=156	=156	=156
0r	2F	1.f	0r	0r	2a
.	2E	.	.	.	2g
.	[1D	.	.	.	2.a
.	.	2e	.	.	.
.	.	.	.	.	4g
=157	=157	=157	=157	=157	=157
0r	1D]	2d	0r	0r	2f
.	.	2c	.	.	2e
.	2.G	2B	.	.	1d
.	.	2A	.	.	.
.	4F	.	.	.	.
=158	=158	=158	=158	=158	=158
0r	4E	2.G	0r	0r	2.e
.	4D	.	.	.	.
.	1G	.	.	.	.
.	.	4A	.	.	4f
.	.	2B	.	.	2g
.	2F	[2c	.	.	[2a
=159	=159	=159	=159	=159	=159
0r	1E	4c]	0r	0r	2a]
.	.	4B	.	.	.
.	.	4A	.	.	1g
.	.	4G	.	.	.
.	1D	1A	.	.	.
.	.	.	.	.	2f#i
=160	=160	=160	=160	=160	=160
0r	0Gl	0Gl	0r	0r	0gl
=161||	=161||	=161||	=161||	=161||	=161||
*M2/1	*M2/1	*M2/1	*M2/1	*M2/1	*M2/1
*met(C|)	*met(C|)	*met(C|)	*met(C|)	*met(C|)	*met(C|)
!!section: Sicut erat in principio
!!!OMD: Sicut erat in principio
0r	[0G	0r	0r	[0g	2.g
.	.	.	.	.	4a
.	.	.	.	.	4b
.	.	.	.	.	4cc
.	.	.	.	.	[2dd
=162	=162	=162	=162	=162	=162
0r	0G]	2.G	0r	0g]	4dd]
.	.	.	.	.	4cc
.	.	.	.	.	1b
.	.	4A	.	.	.
.	.	4B	.	.	.
.	.	4c	.	.	.
.	.	[2d	.	.	4a
.	.	.	.	.	4g
=163	=163	=163	=163	=163	=163
0r	0D	4d]	0d	0a	2f
.	.	4c	.	.	.
.	.	2B	.	.	1g
.	.	1A	.	.	.
.	.	.	.	.	2f#i
=164	=164	=164	=164	=164	=164
0r	0G	1G	0d	0b	2.g
.	.	.	.	.	4f
.	.	1r	.	.	2d
.	.	.	.	.	[2dd
=165	=165	=165	=165	=165	=165
2r	1C	2.G	1e	[0g	2dd]
2.G	.	.	.	.	2cc
.	.	4A	.	.	.
.	2.G	4B	2d	.	1dd
4A	.	4c	.	.	.
4B	.	2d	[2g	.	.
4c	4A	.	.	.	.
=166	=166	=166	=166	=166	=166
2d	2B	2G	4g]	0g]	2r
.	.	.	4f	.	.
1c	2c	2g	2e	.	2g
.	1G	1g	1d	.	1dd
2B	.	.	.	.	.
=167	=167	=167	=167	=167	=167
1c	1C	2e	1c	2.g	1ee
.	.	1g	.	.	.
.	.	.	.	4a	.
2.G	1r	.	2r	4b	1dd
.	.	.	.	4cc	.
.	.	4f	2g	[2dd	.
4A	.	4e	.	.	.
=168	=168	=168	=168	=168	=168
2B	0r	2d	1g	2dd]	2r
2c	.	2e	.	1cc	2g
1G	.	1d	1g	.	1dd
.	.	.	.	2b	.
=169	=169	=169	=169	=169	=169
2C	2r	1c	2.e	0cc	2.ee
1c	2C	.	.	.	.
.	.	.	4f	.	4dd
.	2.C	1G	4g	.	4cc
.	.	.	4a	.	4b
4B	.	.	2g	.	2cc
4A	4D	.	.	.	.
=170	=170	=170	=170	=170	=170
2G	2E	1r	2c	1r	2cc
2F	2F	.	1f	.	4b
.	.	.	.	.	4a
1G	1C	1c	.	1cc	1g
.	.	.	2e	.	.
=171	=171	=171	=171	=171	=171
0F	2r	1.c	0f	1cc	2r
.	2F	.	.	.	1a
.	2.A	.	.	[1cc	.
.	.	8cL	.	.	2a
.	.	8B	.	.	.
.	4B	8c	.	.	.
.	.	8dJ	.	.	.
=172	=172	=172	=172	=172	=172
0r	2c	2e	0r	2cc]	2g
.	2d	1f	.	2b	2f
.	1c	.	.	1cc	1g
.	.	2e	.	.	.
=173	=173	=173	=173	=173	=173
2r	0F	0f	2r	2r	2r
2F	.	.	2c	2cc	1a
2.A	.	.	2.c	2cc	.
.	.	.	.	[2cc	2a
4B	.	.	4d	.	.
=174	=174	=174	=174	=174	=174
2c	0r	1r	2e	2cc]	2g
2d	.	.	1f	2b	2f
1c	.	2r	.	1cc	1g
.	.	2c	2e	.	.
=175	=175	=175	=175	=175	=175
1F	0F	2c	0f	0a	1r
.	.	2c	.	.	.
1r	.	4F	.	.	1cc
.	.	4G	.	.	.
.	.	4A	.	.	.
.	.	4B	.	.	.
=176	=176	=176	=176	=176	=176
2r	1F	1c	1f	1a	1cc
2c	.	.	.	.	.
2c	1C	2r	1e	1g	1cc
2c	.	2c	.	.	.
=177	=177	=177	=177	=177	=177
1A	1F	2c	1f	1a	0dd
.	.	2c	.	.	.
2.G	1G	1B	1d	1b	.
4F	.	.	.	.	.
=178	=178	=178	=178	=178	=178
4E	2.C	1c	1e	2.g	[0cc
4D	.	.	.	.	.
2E	.	.	.	.	.
.	4D	.	.	4f	.
2C	2E	2r	2r	2g	.
2c	[2F	2A	2c	[2a	.
=179	=179	=179	=179	=179	=179
2c	2F]	2F	2A	2a]	0cc_
2c	2E	2G	2.c	1g	.
1A	1F	2.A	.	.	.
.	.	.	4B	.	.
.	.	.	4c	2f	.
.	.	4B	4d	.	.
=180	=180	=180	=180	=180	=180
0G;	0C;	0c;	0e;	0g;	0cc;]
=181	=181	=181	=181	=181	=181
0r	0r	2.c	0r	1g	0cc
.	.	4d	.	.	.
.	.	2e	.	2g	.
.	.	[2f	.	[2a	.
=182	=182	=182	=182	=182	=182
0r	0r	2f]	0r	2a]	1cc
.	.	4e	.	4g	.
.	.	4d	.	4f	.
.	.	4c	.	2e	1cc
.	.	4B	.	.	.
.	.	4A	.	[2f	.
.	.	4G	.	.	.
=183	=183	=183	=183	=183	=183
0r	0r	2F	0r	2f]	0cc
.	.	2f	.	4e	.
.	.	.	.	4d	.
.	.	2e	.	2c	.
.	.	[2f	.	[2cc	.
=184	=184	=184	=184	=184	=184
0r	0r	4f]	1.f	2cc]	0dd
.	.	4e	.	.	.
.	.	4d	.	4b	.
.	.	4c	.	4a	.
.	.	1d	.	1b	.
.	.	.	2f	.	.
=185	=185	=185	=185	=185	=185
0r	1.c	0c	1.e	0cc	1g
.	.	.	.	.	2g
.	2c	.	2e	.	[2a
=186	=186	=186	=186	=186	=186
1.c	2.F	0r	2.f	0r	2a]
.	.	.	.	.	4g
.	4G	.	8eL	.	4f
.	.	.	8dJ	.	.
.	1A	.	2c	.	2e
2c	.	.	[2a	.	[2f
=187	=187	=187	=187	=187	=187
2F	0r	0r	2a]	0r	2f]
2G	.	.	1g	.	4e
.	.	.	.	.	4d
1A	.	.	.	.	2c
.	.	.	2f	.	[2cc
=188	=188	=188	=188	=188	=188
0r	1.G	2.g	2e	0r	2cc]
.	.	.	4d	.	4b
.	.	4g	4c	.	4a
.	.	2g	1d	.	1b
.	2G	2g	.	.	.
=189	=189	=189	=189	=189	=189
1.c	2.C	2.e	4c	1r	1cc
.	.	.	4d	.	.
.	.	.	4e	.	.
.	4D	4d	4f	.	.
.	2E	4c	2g	[1cc	1r
.	.	4B	.	.	.
2c	[2F	2A	[2a	.	.
=190	=190	=190	=190	=190	=190
2F	2F]	2r	2a]	1cc]	0r
2G	2E	2c	1g	.	.
1A	1F	2c	.	1cc	.
.	.	2c	2f	.	.
=191	=191	=191	=191	=191	=191
1G	1r	2d	0g	1b	0r
.	.	2d	.	.	.
1r	[1c	[1e	.	2.cc	.
.	.	.	.	8bL	.
.	.	.	.	8aJ	.
=192	=192	=192	=192	=192	=192
0r	2c]	1e]	1r	2g	0cc
.	2c	.	.	1a	.
.	2F	1r	1c	.	.
.	2G	.	.	[2g	.
=193	=193	=193	=193	=193	=193
1r	1A	2r	2c	2g]	1cc
.	.	2A	2c	2f#i	.
[1G	1G	4B	2d	1g	1b
.	.	4A	.	.	.
.	.	4B	2d	.	.
.	.	4c	.	.	.
=194	=194	=194	=194	=194	=194
2G]	0r	2d	1B	2r	2g
2G	.	1e	.	2g	2b
2C	.	.	1r	2g	1a
2D	.	4d	.	2f	.
.	.	4c	.	.	.
=195	=195	=195	=195	=195	=195
1E	0r	4B	2r	2e	1g
.	.	4G	.	.	.
.	.	1g	2G	2c	.
1D	.	.	2A	1d	2r
.	.	2f#i	2A	.	2dd
=196	=196	=196	=196	=196	=196
2r	1.G	2g	2G	1r	2.dd
2d	.	2G	2.g	.	.
.	.	.	.	.	4cc
2d	.	2B	.	2r	2b
.	.	.	4f	.	.
2d	2G	2B	4e	[2g	2g
.	.	.	4d	.	.
=197	=197	=197	=197	=197	=197
2.c	2C	1A	2e	2g]	1a
.	2D	.	2d	2f	.
8BL	.	.	.	.	.
8AJ	.	.	.	.	.
2G	1E	2r	2.B	4e	1r
.	.	.	.	4d	.
2E	.	2G	.	[2g	.
.	.	.	4c	.	.
=198	=198	=198	=198	=198	=198
4F	0D	2B	0d	2g]	1.dd
4E	.	.	.	.	.
4D	.	2B	.	4f#i	.
4C	.	.	.	4e	.
2D	.	2A	.	1f#i	.
[2d	.	2A	.	.	2dd
=199	=199	=199	=199	=199	=199
2d]	2r	[0Gl	2r	[0gl	1b
2d	1G	.	2d	.	.
2B	.	.	2d	.	1b
2G	2G	.	2d	.	.
=200	=200	=200	=200	=200	=200
0c	2.C	0G_	1e	0g_	1.g
.	4D	.	.	.	.
.	2E	.	1e	.	.
.	2F	.	.	.	2a
=201	=201	=201	=201	=201	=201
1B	[0Gl	0G_	[0dl	0g_	[0bl
2G	.	.	.	.	.
2A	.	.	.	.	.
=202	=202	=202	=202	=202	=202
0Bl	0G]	0G]	0d]	0g]	0b]
==	==	==	==	==	==
*-	*-	*-	*-	*-	*-
!!!system-decoration: s1,s2,s3,s4,s5,s6
!!!RDF**kern: i = editorial accidental
!!!RDF**kern: l = terminal long
!!!ENC: David Nivarlet
!!!END: 2026/03/03
!!!EED: Benjamin Ory
!!!EEV: 2026/03/05
!!!YEC: Copyright 2026 Benjamin Ory, All Rights Reserved
!!!ONB: Translated from MusicXML on 2026/03/05